symbols/web/settings_system_daydream/materialsymbolssharp/settings_system_daydream_wght500gradN25_48px.svg

<svg xmlns="http://www.w3.org/2000/svg" height="48" width="48"><path d="M17.75 31.2H31.3q1.75 0 3.025-1.15t1.275-2.9q0-1.7-1.275-2.825Q33.05 23.2 31.3 23.2h-.8q-.25-2.65-1.925-4.525Q26.9 16.8 24.4 16.8q-2.05 0-3.725 1.225Q19 19.25 18.35 21.2h-.95q-1.9 0-3.175 1.475T12.95 26.15q0 2.05 1.375 3.55t3.425 1.5Zm-13.8 8.85V7.9h40.1v32.15Zm3.3-3.25h33.5V11.2H7.25Zm10.5-8.5q-.85 0-1.375-.6t-.525-1.55q0-.9.525-1.475.525-.575 1.375-.575h2.9V24q0-1.7 1.075-3.025T24.4 19.65q1.45 0 2.25 1.25t.8 2.55v2.6h3.85q.7 0 1.05.275.35.275.35.825 0 .55-.35.85-.35.3-1.05.3Zm-10.5 8.5V11.2v25.6Z"/></svg>

<svg xmlns="http://www.w3.org/2000/svg" height="48" width="48"><path d="M17.75 31.2H31.3Q33.05 31.2 34.325 30.05Q35.6 28.9 35.6 27.15Q35.6 25.45 34.325 24.325Q33.05 23.2 31.3 23.2H30.5Q30.25 20.55 28.575 18.675Q26.9 16.8 24.4 16.8Q22.35 16.8 20.675 18.025Q19 19.25 18.35 21.2H17.4Q15.5 21.2 14.225 22.675Q12.95 24.15 12.95 26.15Q12.95 28.2 14.325 29.7Q15.7 31.2 17.75 31.2ZM3.95 40.05V7.9H44.05V40.05ZM7.25 36.8H40.75V11.2H7.25ZM17.75 28.3Q16.9 28.3 16.375 27.7Q15.85 27.1 15.85 26.15Q15.85 25.25 16.375 24.675Q16.9 24.1 17.75 24.1H20.65V24Q20.65 22.3 21.725 20.975Q22.8 19.65 24.4 19.65Q25.85 19.65 26.65 20.9Q27.45 22.15 27.45 23.45V26.05H31.3Q32 26.05 32.35 26.325Q32.7 26.6 32.7 27.15Q32.7 27.7 32.35 28Q32 28.3 31.3 28.3ZM7.25 36.8V11.2V36.8Z"/></svg>
